X:209
T: Abschied von Insbruck
N: A0254A
O: Europa, Mitteleuropa, Deutschland
R: Romanze, Ballade, Lied
M: 6/2
L: 1/4
K: F
F4 | F2G2A4c4 | B4A4z2
A2 | c3BG4A4 | F4E4z2
F2 | G2F2E2F2 | G4z2
G2 | F2G2A4c4 | B4A4z2
A2 | c3BG4A4 | F4E4z2
E2 | F2G2A4 | B3AGFG2 | AFF4E2 | F4

